src/icons/scalable/actions/bug-symbolic.svg

<?xml version="1.0" encoding="UTF-8"?>
<svg xmlns="http://www.w3.org/2000/svg" height="16px" viewBox="0 0 16 16" width="16px"><path d="m 5 0 c -0.550781 0 -1 0.449219 -1 1 c 0 0.691406 0.386719 1.285156 0.800781 1.605469 c -0.503906 0.671875 -0.800781 1.5 -0.800781 2.394531 h -1 v -1 h -2 v 1 c 0 0.832031 0.5625 1.523438 1.050781 1.769531 c 0.492188 0.246094 0.949219 0.230469 0.949219 0.230469 h 1 v 1 h -3 v 2 h 3 v 1 h -1 s -0.457031 -0.015625 -0.949219 0.230469 c -0.488281 0.246093 -1.050781 0.9375 -1.050781 1.769531 v 3 h 2 v -3 h 1.128906 c 0.449219 1.71875 2.015625 3 3.871094 3 c 1.851562 0 3.421875 -1.28125 3.871094 -3 h 1.128906 v 3 h 2 v -3 c 0 -0.832031 -0.5625 -1.523438 -1.054688 -1.769531 c -0.488281 -0.246094 -0.945312 -0.230469 -0.945312 -0.230469 h -1 v -1 h 3 v -2 h -3 v -1 h 1 s 0.457031 0.015625 0.945312 -0.230469 c 0.492188 -0.246093 1.054688 -0.9375 1.054688 -1.769531 v -1 h -2 v 1 h -1 c 0 -0.894531 -0.296875 -1.722656 -0.800781 -2.394531 c 0.410156 -0.320313 0.800781 -0.914063 0.800781 -1.605469 c 0 -0.550781 -0.449219 -1 -1 -1 s -1 0.449219 -1 1 c -0.238281 0 -0.464844 0.085938 -0.648438 0.238281 c -0.421874 -0.152343 -0.878906 -0.238281 -1.351562 -0.238281 c -0.476562 0 -0.929688 0.085938 -1.355469 0.238281 c -0.179687 -0.152343 -0.40625 -0.238281 -0.644531 -0.238281 c 0 -0.550781 -0.449219 -1 -1 -1 z m 2.96875 5.03125 h 0.0625 c 0.535156 0 0.96875 0.433594 0.96875 0.96875 v 3.0625 c 0 0.535156 -0.433594 0.96875 -0.96875 0.96875 h -0.0625 c -0.539062 0 -0.96875 -0.433594 -0.96875 -0.96875 v -3.0625 c 0 -0.535156 0.429688 -0.96875 0.96875 -0.96875 z m 0 6 h 0.0625 c 0.535156 0 0.96875 0.433594 0.96875 0.96875 v 0.0625 c 0 0.535156 -0.433594 0.96875 -0.96875 0.96875 h -0.0625 c -0.539062 0 -0.96875 -0.433594 -0.96875 -0.96875 v -0.0625 c 0 -0.535156 0.429688 -0.96875 0.96875 -0.96875 z m 0 0" fill="#222222"/></svg>

<svg xmlns="http://www.w3.org/2000/svg" width="16" height="16" viewBox="0 0 16 16"><path fill="#222" d="M5 0c-.55 0-1 .45-1 1 0 .691.387 1.285.8 1.605C4.298 3.277 4 4.105 4 5H3V4H1v1c0 .832.563 1.523 1.05 1.77.493.246.95.23.95.23h1v1H1v2h3v1H3s-.457-.016-.95.23C1.563 11.477 1 12.168 1 13v3h2v-3h1.129c.45 1.719 2.016 3 3.871 3 1.852 0 3.422-1.281 3.871-3H13v3h2v-3c0-.832-.562-1.523-1.055-1.77C13.457 10.984 13 11 13 11h-1v-1h3V8h-3V7h1s.457.016.945-.23C14.437 6.523 15 5.832 15 5V4h-2v1h-1c0-.895-.297-1.723-.8-2.395.41-.32.8-.914.8-1.605 0-.55-.45-1-1-1s-1 .45-1 1c-.238 0-.465.086-.648.238a3.98 3.98 0 0 0-2.707 0A1 1 0 0 0 6 1c0-.55-.45-1-1-1m2.969 5.031h.062A.97.97 0 0 1 9 6v3.063a.97.97 0 0 1-.969.968H7.97A.966.966 0 0 1 7 9.062V6c0-.535.43-.969.969-.969m0 6h.062A.97.97 0 0 1 9 12v.063a.97.97 0 0 1-.969.968H7.97a.966.966 0 0 1-.97-.969V12c0-.535.43-.969.969-.969m0 0"/></svg>
